X: 3
T: The Bus Stop
R: reel
M: 4/4
L: 1/8
K: Amin
|:"Am"A2 eA dA c2|"Am"ABcA "G"BAGB|"Am"A2eA dAc2|"F"cde^f "G"gedB|
"Am"A2 eA dAc2|"Am"ABcA "G"BAG2|"F"FGAc "G"BAGA|"Am"cABG A4:|
|:"Am"e a2 g edcB|ABcd e4|"Am" e a2 g ed c2|"D"de^fd "E"e4|
"Am" e a2 g edcB|ABcd e2 dc|"G"BAGF EFGB|"Am"cABG A4:|

